ui/assets/img/enterprise/sg-ent-git-logo.svg

<?xml version="1.0" encoding="UTF-8"?>
<svg width="76px" height="32px" viewBox="0 0 76 32" version="1.1" xmlns="http://www.w3.org/2000/svg" xmlns:xlink="http://www.w3.org/1999/xlink">
    <!-- Generator: Sketch 43.1 (39012) - http://www.bohemiancoding.com/sketch -->
    <title>git-logo</title>
    <desc>Created with Sketch.</desc>
    <defs></defs>
    <g id="Page-1" stroke="none" stroke-width="1" fill="none" fill-rule="evenodd">
        <g id="sg-enterprise" transform="translate(-1114.000000, -653.000000)" fill-rule="nonzero" fill="#5D7EAC">
            <g id="Group-6" transform="translate(0.000000, 304.000000)">
                <g id="Group-27" transform="translate(250.000000, 192.000000)">
                    <g id="Group-5" transform="translate(0.000000, 146.000000)">
                        <g id="git-logo" transform="translate(864.000000, 11.000000)">
                            <g id="Group">
                                <path d="M45.1282759,10.9809655 C43.4772414,10.9809655 42.2477241,11.7916966 42.2477241,13.7428966 C42.2477241,15.2129931 43.058069,16.2334897 45.0394483,16.2334897 C46.7187586,16.2334897 47.8593103,15.244 47.8593103,13.6821793 C47.8593103,11.9122483 46.8386207,10.9810759 45.1282759,10.9810759 L45.1282759,10.9809655 Z M41.8262069,24.7575172 C41.435531,25.2370207 41.0462069,25.7464828 41.0462069,26.3477517 C41.0462069,27.5472552 42.5758621,27.9082483 44.6771034,27.9082483 C46.4177931,27.9082483 48.7888276,27.7863503 48.7888276,26.1679724 C48.7888276,25.206069 47.6481379,25.1465103 46.2067586,25.0561379 L41.826069,24.7575172 L41.8262069,24.7575172 Z M50.7092414,11.0717241 C51.2485517,11.7621793 51.8195862,12.7227034 51.8195862,14.1031724 C51.8195862,17.4342069 49.2085517,19.3848276 45.4281379,19.3848276 C44.4667586,19.3848276 43.5964138,19.2650703 43.0567724,19.1152772 L42.0660966,20.7055669 L45.0067862,20.8852221 C50.1990621,21.2160359 53.2592,21.3663807 53.2592,25.3563945 C53.2592,28.8085324 50.2288552,30.7580497 45.0067862,30.7580497 C39.5750621,30.7580497 37.5044414,29.3773876 37.5044414,27.0068772 C37.5044414,25.6558428 38.1047724,24.9372221 39.1551448,23.94536 C38.164469,23.5266014 37.8348138,22.7767531 37.8348138,21.9661048 C37.8348138,21.3054152 38.164469,20.70536 38.7054897,20.1347669 C39.2454897,19.5651117 39.8454897,18.9941324 40.5658483,18.3341048 C39.0955034,17.6139945 37.9848276,16.0533876 37.9848276,13.8323117 C37.9848276,10.3815531 40.2658759,8.01162207 44.8565517,8.01162207 C46.1472552,8.01162207 46.9279448,8.13041379 47.6182069,8.31159448 L53.4706207,8.31159448 L53.4706207,10.861829 L50.7092414,11.0719669 L50.7092414,11.0717241 Z" id="Shape"></path>
                                <path d="M58.7531034,5.6182069 C57.042069,5.6182069 56.0520828,4.62697931 56.0520828,2.91575172 C56.0520828,1.20667586 57.0420966,0.275641379 58.7531034,0.275641379 C60.4937931,0.275641379 61.4841379,1.20667586 61.4841379,2.91575172 C61.4841379,4.62695172 60.4937931,5.6182069 58.7531034,5.6182069 Z M54.8811034,23.6529655 L54.8811034,21.2833379 L56.4121379,21.0738897 C56.8324966,21.0129931 56.8921379,20.9236828 56.8921379,20.4724552 L56.8921379,11.6495586 C56.8921379,11.3201241 56.8024828,11.1091448 56.5014621,11.0198207 L54.8811034,10.4491172 L55.2110897,8.01915862 L61.4237793,8.01915862 L61.4237793,20.4726759 C61.4237793,20.9537241 61.4527448,21.0132276 61.9041103,21.0741103 L63.4348138,21.2835586 L63.4348138,23.6531862 L54.8808828,23.6531862 L54.8811034,23.6529655 Z" id="Shape"></path>
                                <path d="M75.302069,22.489931 C74.0110345,23.1193931 72.1208276,23.6896828 70.4093793,23.6896828 C66.8383448,23.6896828 65.4882759,22.2505655 65.4882759,18.8579586 L65.4882759,10.9958897 C65.4882759,10.8161986 65.4882759,10.6956414 65.2472414,10.6956414 L63.1468828,10.6956414 L63.1468828,8.02485517 C65.7885931,7.72394483 66.8381931,6.40322759 67.1684,3.13216552 L70.0197103,3.13216552 L70.0197103,7.39506207 C70.0197103,7.60437241 70.0197103,7.69503448 70.2600552,7.69503448 L74.4912276,7.69503448 L74.4912276,10.6955862 L70.0197793,10.6955862 L70.0197793,17.8677241 C70.0197793,19.6385931 70.440469,20.3282483 72.0601103,20.3282483 C72.9014897,20.3282483 73.7707862,20.1188 74.4911448,19.848469 L75.3021793,22.4901517" id="Shape"></path>
                                <path d="M30.8358621,14.6143448 L17.1131034,0.893268966 C16.323531,0.10297931 15.0418759,0.10297931 14.2513103,0.893268966 L11.401931,3.74292414 L15.0162759,7.35726897 C15.8565241,7.07357241 16.8196138,7.26378483 17.4890759,7.93337931 C18.1620138,8.60714483 18.350869,9.57845517 18.0600552,10.4215172 L21.5436414,13.9051034 C22.3864276,13.6146759 23.3588138,13.8023117 24.0317793,14.476469 C24.9726345,15.4170483 24.9726345,16.9411586 24.0317793,17.8819862 C23.0907862,18.8231172 21.5666759,18.8231172 20.6251586,17.8819862 C19.9177103,17.1739862 19.742731,16.1345379 20.1010483,15.2628966 L16.8522207,12.014069 L16.8519448,20.5633103 C17.0813241,20.6768607 17.2977931,20.8284138 17.4889379,21.018731 C18.4295172,21.9592 18.4295172,23.4830345 17.4889379,24.4250759 C16.5480828,25.3655172 15.0232828,25.3655172 14.0834207,24.4250759 C13.1427034,23.4831172 13.1427034,21.9592828 14.0834207,21.018731 C14.3159034,20.7866621 14.5849103,20.6110069 14.8719448,20.493269 L14.8719448,11.8645793 C14.5847724,11.7473379 14.3160828,11.5729931 14.0832552,11.3390621 C13.3707034,10.6270621 13.1990897,9.58126897 13.5645241,8.70626207 L10.0014897,5.14267586 L0.592937931,14.5509517 C-0.1976,15.3418483 -0.1976,16.6235034 0.592937931,17.4138483 L14.314869,31.1349517 C15.1048828,31.9252414 16.3860966,31.9252414 17.1772138,31.1349517 L30.8356966,17.4786759 C31.6259862,16.688 31.6259862,15.4059586 30.8356966,14.6155034" id="Shape"></path>
                            </g>
                        </g>
                    </g>
                </g>
            </g>
        </g>
    </g>
</svg>

<svg width="76" height="32" viewBox="0 0 76 32" xmlns="http://www.w3.org/2000/svg"><title>git-logo</title><desc>Created with Sketch.</desc><g fill-rule="nonzero" fill="#5D7EAC"><path d="M45.128 10.981c-1.651 0-2.881.811-2.881 2.762 0 1.47.81 2.491 2.792 2.491 1.679 0 2.82-.989 2.82-2.551 0-1.77-1.021-2.701-2.731-2.701zm-3.302 13.777c-.391.48-.78.989-.78 1.59 0 1.2 1.53 1.56 3.631 1.56 1.741 0 4.112-.122 4.112-1.74 0-.962-1.141-1.021-2.582-1.112l-4.381-.299zm8.883-13.686c.539.69 1.11 1.651 1.11 3.031 0 3.331-2.611 5.282-6.391 5.282-.961 0-1.832-.12-2.371-.27l-.991 1.59 2.941.18c5.192.331 8.252.481 8.252 4.471 0 3.452-3.03 5.402-8.252 5.402-5.432 0-7.502-1.381-7.502-3.751 0-1.351.6-2.07 1.651-3.062-.991-.419-1.32-1.169-1.32-1.979 0-.661.33-1.261.871-1.831.54-.57 1.14-1.141 1.86-1.801-1.47-.72-2.581-2.281-2.581-4.502 0-3.451 2.281-5.821 6.872-5.821 1.291 0 2.071.119 2.762.3h5.852v2.55l-2.761.21zM58.753 5.618c-1.711 0-2.701-.991-2.701-2.702 0-1.709.99-2.64 2.701-2.64 1.741 0 2.731.931 2.731 2.64 0 1.711-.99 2.702-2.731 2.702zm-3.872 18.035v-2.37l1.531-.209c.42-.061.48-.15.48-.601v-8.823c0-.329-.09-.54-.391-.63l-1.62-.571.33-2.43h6.213v12.454c0 .481.029.541.48.601l1.531.209v2.37h-8.554zM75.302 22.49c-1.291.629-3.181 1.2-4.893 1.2-3.571 0-4.921-1.439-4.921-4.832v-7.862c0-.18 0-.3-.241-.3h-2.1v-2.671c2.642-.301 3.691-1.622 4.022-4.893h2.851v4.263c0 .209 0 .3.24.3h4.231v3.001h-4.471v7.172c0 1.771.421 2.461 2.04 2.461.841 0 1.711-.209 2.431-.48l.811 2.642M30.836 14.614l-13.723-13.721c-.79-.79-2.071-.79-2.862 0l-2.849 2.85 3.614 3.614c.84-.284 1.803-.093 2.473.576.673.674.862 1.645.571 2.488l3.484 3.484c.843-.29 1.815-.103 2.488.571.941.941.941 2.465 0 3.406-.941.941-2.465.941-3.407 0-.707-.708-.882-1.747-.524-2.619l-3.249-3.249v8.549c.229.114.446.265.637.455.941.94.941 2.464 0 3.406-.941.94-2.466.94-3.406 0-.941-.942-.941-2.466 0-3.406.232-.232.501-.408.789-.525v-8.629c-.287-.117-.556-.292-.789-.526-.713-.712-.884-1.758-.519-2.633l-3.563-3.564-9.409 9.408c-.791.791-.791 2.073 0 2.863l13.722 13.721c.79.79 2.071.79 2.862 0l13.658-13.656c.79-.791.79-2.073 0-2.863"/></g></svg>
